X:1158
T:Clog, The
O:england
R:polka
S:Mary Bergin
M:2/4
L:1/8
K:D
AD FA|G/A/G/F/ EF/G/|AD FA|de/d/ cB|
AD FA|G/A/G/F/ E2|c/B/A ce|1 de/d/ cB:|2 d2 d>e||
|:fa gf|ec A>e|fd af|e2 ed/e/|fa gf|ec A>B|c/B/A ce|1 d2 d>e:|2 de/d/ cB||
